!!!COM: Palestrina, Giovanni Perluigi da
!!!OPR: In duplicibus minoribus (I)
!!!OTL: Sanctus
**kern	**kern	**kern	**kern	**kern
*Ibass	*Itenor	*Itenor	*Icalto	*Icant
!Bassus	!Tenor 2	!Tenor 1	!Altus	!Cantus
*clefF4	*clefGv2	*clefGv2	*clefG2	*clefG2
*k[]	*k[]	*k[]	*k[]	*k[]
*E:phr	*E:phr	*E:phr	*E:phr	*E:phr
*M4/2	*M4/2	*M4/2	*M4/2	*M4/2
=1	=1	=1	=1	=1
0r	0r	0r	1B	0r
.	.	.	1d	.
=2	=2	=2	=2	=2
1E	0r	0r	1.e	0r
1G	.	.	.	.
.	.	.	2d	.
=3	=3	=3	=3	=3
1.A	0r	0r	4c	1r
.	.	.	4B	.
.	.	.	4c	.
.	.	.	4d	.
.	.	.	4e	1e
.	.	.	4f	.
2G	.	.	[2g	.
=4	=4	=4	=4	=4
2E	0r	0r	4g]	1g
.	.	.	4f	.
2G	.	.	1e	.
2.F	.	.	.	[1a
.	.	.	2d	.
8E	.	.	.	.
8D	.	.	.	.
=5	=5	=5	=5	=5
1C	1E	1r	0e	2a]
.	.	.	.	2g
1E	1G	1B	.	2e
.	.	.	.	2g
=6	=6	=6	=6	=6
1D	1.A	1d	2r	1f
.	.	.	4A	.
.	.	.	4B	.
[1C	.	[1e	4c	2e
.	.	.	4d	.
.	2G	.	4e	[2cc
.	.	.	4f	.
=7	=7	=7	=7	=7
1C]	2E	1e]	2g	4cc]
.	.	.	.	4b
.	2G	.	2e	4g
.	.	.	.	4a
1D	1F	1d	2f	4b
.	.	.	.	4a
.	.	.	2d	[2a
=8	=8	=8	=8	=8
1r	1E	1B	1e	2a]
.	.	.	.	2g#
1D	1F	1d	1A	2.a
.	.	.	.	4b
=9	=9	=9	=9	=9
0AA	[0E	0c	0e	4cc
.	.	.	.	4b
.	.	.	.	4a
.	.	.	.	4g#
.	.	.	.	1a
=10	=10	=10	=10	=10
[0E	1E_	[0B	[0e	[0g#
.	1E_	.	.	.
=11	=11	=11	=11	=11
0E]	0E]	0B]	0e]	0g#]
==	==	==	==	==
*-	*-	*-	*-	*-
!!!CDT: 1525/^1526/-1594/2/2
!!!OCY: Italia
!!!AGN: Mass (Paraphrase)
!!!AST: renaissance, vocal
!!!ASW: Gregorian Mass
!!!PWK: Masses, Book Mantuan I
!!!RNB: Cadence finals: A
!!!YOR: Le Opere Complete, v. 18, p. 42
!!!YOO: Rome, Italy: Fratelli Scalera
!!!END: 1992//
!!!EED: John Miller
!!!YEC: Copyright 2000, John Miller
!!!YEN: United States of America
!!!YEM: Rights to all derivative electronic formats reserved.
!!!YEM: Refer to licensing agreement for further details.
!!!YEM: This file must be accompanied by the licensing agreement.
!!!YEM: A copy of the licensing agreement may be found at http://www.music-cog.ohio-state.edu/HumdrumDatabases/Palestrina/license.txt
!!!EMD: converted to Humdrum by Bret Aarden
